X:485
T: EINEN RING TRAG ICH VON DIR
N: E0435
O: Europa, Mitteleuropa, Deutschland, Schlesien
R: Liebes - Lied, Treue
M: 4/4
L: 1/8
K: F
 | c2c2A2F2 | G2AGF2z2 |
c2c2f2A2 | c3BA2z2 |
F2F2f2f2 | B2dcc2z2 |
A2F2c2A2 | G2AGF2z2

@@@ Tune index: 4135
